; generated by Slic3r 1.2.8-dev on 2015-06-05 at 11:03:41

; external perimeters extrusion width = 0.35mm
; perimeters extrusion width = 0.59mm
; infill extrusion width = 0.67mm
; solid infill extrusion width = 0.59mm
; top infill extrusion width = 0.59mm

M107
G28
G92 X0 Y0 Z0 E0
G1 F5000 Y30 X30
G1 X220
G1 F100 E10

G28
G92 X0 Y0 Z0
G1 F4000 X101 Y127
G92 X0 Y0 Z0 E0
G21 ; set units to millimeters
G90 ; use absolute coordinates
M82 ; use absolute distances for extrusion
G92 E0
G1 E-0.70000 F600.00000
G92 E0
G1 Z0.200 F5400.000
G1 Z0.400 F5400.000
G1 X-20.241 Y12.601 F5400.000
G1 Z0.200 F5400.000
G1 E0.70000 F600.00000
G1 X-30.828 Y-4.406 E1.29482 F1800.000
G1 X-31.594 Y-7.069 E1.37708
G1 X-31.668 Y-46.995 E2.56256
G1 X-31.273 Y-48.960 E2.62206
G1 X-30.148 Y-50.619 E2.68157
G1 X-28.468 Y-51.712 E2.74108
G1 X-26.597 Y-52.070 E2.79766
G1 X26.599 Y-52.070 E4.37710
G1 X28.563 Y-51.674 E4.43660
G1 X30.221 Y-50.548 E4.49611 F1800.000
G1 X31.313 Y-48.867 E4.55562
G1 X31.670 Y-46.999 E4.61209
G1 X31.670 Y-6.321 E5.81988
G1 X31.634 Y-5.714 E5.83792
G1 X26.680 Y35.410 E7.06778
G1 X26.581 Y35.970 E7.08466
G1 X26.497 Y36.313 E7.09513
G1 X25.534 Y39.911 E7.20573
G1 X25.254 Y40.694 E7.23042
G1 X24.856 Y41.571 E7.25903
G1 X23.622 Y43.254 E7.32099
G1 X22.379 Y44.367 E7.37053
G1 X21.977 Y44.692 E7.38587
G1 X18.586 Y47.158 E7.51036
G1 X18.117 Y47.461 E7.52693
G1 X11.343 Y51.326 E7.75850
G1 X9.441 Y51.956 E7.81801
G1 X7.443 Y51.800 E7.87752
G1 X5.758 Y50.957 E7.93343
G1 X5.486 Y50.750 E7.94359
G1 X4.439 Y49.673 E7.98818
G1 X-7.593 Y32.913 E8.60077
G1 X-20.213 Y12.645 E9.30966
G1 X-19.910 Y12.457 F5400.000
G1 X-30.525 Y-4.595 E9.90604 F1800.000
G1 X-31.237 Y-7.070 E9.98251
G1 X-31.311 Y-46.996 E11.16796
G1 X-30.916 Y-48.887 E11.22531
G1 X-29.797 Y-50.461 E11.28266
G1 X-28.140 Y-51.453 E11.34002
G1 X-26.597 Y-51.713 E11.38647
G1 X26.599 Y-51.713 E12.96591
G1 X28.489 Y-51.317 E13.02327
G1 X30.063 Y-50.196 E13.08062 F1800.000
G1 X31.054 Y-48.539 E13.13797
G1 X31.313 Y-46.999 E13.18433
G1 X31.313 Y-6.321 E14.39212
G1 X31.279 Y-5.757 E14.40889
G1 X26.326 Y35.367 E15.63875
G1 X26.233 Y35.888 E15.65444
G1 X26.153 Y36.220 E15.66460
G1 X25.189 Y39.819 E15.77520
G1 X24.929 Y40.546 E15.79815
G1 X24.531 Y41.424 E15.82676
G1 X23.383 Y42.988 E15.88436
G1 X22.141 Y44.101 E15.93390
G1 X21.767 Y44.403 E15.94815
G1 X18.376 Y46.869 E16.07265
G1 X17.940 Y47.150 E16.08805
G1 X11.166 Y51.016 E16.31962
G1 X9.328 Y51.610 E16.37697
G1 X7.406 Y51.416 E16.43433
G1 X5.975 Y50.673 E16.48222
G1 X5.702 Y50.466 E16.49238
G1 X4.729 Y49.465 E16.53383
G1 X-7.292 Y32.720 E17.14587
G1 X-19.882 Y12.501 E17.85305
G1 X-19.579 Y12.313 F5400.000
G1 X-30.222 Y-4.784 E18.45098 F1800.000
G1 X-30.880 Y-7.071 E18.52166
G1 X-30.954 Y-46.996 E19.70708
G1 X-30.560 Y-48.810 E19.76219
G1 X-29.446 Y-50.295 E19.81731
G1 X-27.816 Y-51.182 E19.87242
G1 X-26.597 Y-51.356 E19.90898
G1 X26.599 Y-51.356 E21.48842
G1 X28.412 Y-50.961 E21.54353
G1 X29.897 Y-49.846 E21.59865 F1800.000
G1 X30.783 Y-48.215 E21.65376
G1 X30.956 Y-46.999 E21.69023
G1 X30.956 Y-6.321 E22.89802
G1 X30.924 Y-5.800 E22.91352
G1 X25.971 Y35.325 E24.14338
G1 X25.808 Y36.128 E24.16771
G1 X24.844 Y39.726 E24.27831
G1 X24.604 Y40.399 E24.29953
G1 X24.206 Y41.276 E24.32813
G1 X23.145 Y42.722 E24.38137
G1 X21.902 Y43.835 E24.43091
G1 X21.557 Y44.114 E24.44408
G1 X18.166 Y46.580 E24.56858
G1 X17.763 Y46.840 E24.58281
G1 X10.989 Y50.706 E24.81439
G1 X9.218 Y51.262 E24.86950
G1 X7.377 Y51.029 E24.92461
G1 X6.191 Y50.389 E24.96463
G1 X5.919 Y50.182 E24.97479
G1 X5.019 Y49.257 E25.01310
G1 X-6.992 Y32.527 E25.62459
G1 X-19.551 Y12.357 E26.33006
G1 E25.63006 F600.00000
G92 E0
G1 Z0.400 F5400.000
G1 X8.760 Y46.435 F5400.000
G1 Z0.200 F5400.000
G1 E0.70000 F600.00000
G1 X8.779 Y46.484 E0.70154 F1800.000
G1 E0.00154 F600.00000
G92 E0
G1 Z0.400 F5400.000
G1 X15.068 Y39.664 F5400.000
G1 Z0.200 F5400.000
G1 E0.70000 F600.00000
G1 X15.272 Y40.059 E0.71318 F720.000
G1 X15.293 Y40.445 E0.72467
G1 E0.02467 F600.00000
G92 E0
G1 Z0.400 F5400.000
G1 X16.741 Y17.603 F5400.000
G1 Z0.200 F5400.000
G1 E0.70000 F600.00000
G1 X16.342 Y17.526 E0.71205 F900.000
G1 X16.073 Y17.359 E0.72148
G1 X16.014 Y17.131 E0.72844
G1 X16.193 Y16.912 E0.73685
G1 X16.469 Y16.917 E0.74506
G1 X16.503 Y16.880 E0.74656
G1 X16.705 Y16.658 E0.75546 F900.000
G1 X17.205 Y16.988 E0.77324
G1 X16.772 Y17.561 E0.79456
G1 X16.623 Y17.932 F5400.000
G1 E0.09456 F600.00000
G92 E0
G1 Z0.400 F5400.000
G1 X18.367 Y36.879 F5400.000
G1 Z0.200 F5400.000
G1 E0.70000 F600.00000
G1 X18.476 Y36.623 E0.70826 F900.000
G1 X18.950 Y36.166 E0.72781
G1 X19.139 Y35.867 E0.73832
G1 X19.201 Y35.340 E0.75405
G1 X19.380 Y35.124 E0.76239
G1 X19.683 Y35.197 E0.77164
G1 X20.048 Y35.073 E0.78309
G1 X20.546 Y35.112 E0.79794
G1 X20.945 Y35.153 E0.80983 F900.000
G1 X20.669 Y35.906 E0.83366
G1 X20.215 Y36.631 E0.85905
G1 X20.076 Y38.262 E0.90763
G1 X20.077 Y38.481 E0.91415
G1 X19.783 Y39.130 E0.93532
G1 X19.258 Y39.567 E0.95558
G1 X18.811 Y39.995 E0.97395
G1 X18.169 Y40.236 E0.99433
G1 X17.939 Y40.015 E1.00379
G1 X17.073 Y39.757 E1.03061
G1 X17.894 Y39.290 E1.05863
G1 X17.996 Y39.114 E1.06467
G1 X18.986 Y38.046 E1.10790
G1 X18.616 Y37.303 E1.13256
G1 X18.232 Y37.153 E1.14479
G1 X18.344 Y36.926 E1.15230
G1 E0.45230 F600.00000
G92 E0
G1 Z0.400 F5400.000
G1 X24.044 Y-13.633 F5400.000
G1 Z0.200 F5400.000
G1 E0.70000 F600.00000
G1 X23.850 Y-14.027 E0.71304 F900.000
G1 X23.543 Y-14.335 E0.72596
G1 X23.707 Y-14.658 E0.73673
G1 X23.985 Y-14.615 E0.74508
G1 X24.159 Y-14.747 E0.75156
G1 X24.290 Y-14.761 E0.75548
G1 X24.612 Y-14.795 E0.76508 F900.000
G1 X24.885 Y-14.160 E0.78560
G1 X24.586 Y-13.828 E0.79886
G1 X24.094 Y-13.651 E0.81438
G1 X23.725 Y-13.490 F5400.000
G1 X6.930 Y-16.234 F5400.000
G1 X6.594 Y-15.428 E0.84031 F900.000
G1 X6.233 Y-15.071 E0.85539
G1 X5.758 Y-14.784 E0.87187
G1 X5.211 Y-14.729 E0.88819
G1 X4.807 Y-14.781 E0.90026
G1 X4.586 Y-14.751 E0.90688
G1 X4.413 Y-14.475 E0.91657
G1 X4.815 Y-14.093 E0.93303
G1 X5.179 Y-13.311 E0.95864
G1 X4.684 Y-12.926 E0.97728
G1 X4.259 Y-12.397 E0.99742
G1 X3.877 Y-12.342 E1.00889
G1 X3.018 Y-12.488 E1.03476
G1 X2.955 Y-12.806 E1.04440
G1 X2.832 Y-12.769 E1.04823
G1 X2.190 Y-12.788 E1.06729
G1 X1.422 Y-12.731 E1.09017
G1 X1.403 Y-12.553 E1.09548
G1 X1.863 Y-12.419 E1.10971
G1 X2.246 Y-12.354 E1.12126
G1 X2.686 Y-12.012 E1.13778
G1 X2.736 Y-11.503 E1.15297
G1 X2.578 Y-11.211 E1.16281
G1 X2.466 Y-10.888 E1.17297
G1 X2.259 Y-10.484 E1.18644
G1 X1.565 Y-9.774 E1.21593
G1 X1.200 Y-10.068 E1.22982
G1 X0.580 Y-10.263 E1.24914
G1 X0.499 Y-10.734 E1.26331
G1 X0.453 Y-11.328 E1.28101
G1 X0.631 Y-11.676 E1.29260
G1 X0.844 Y-12.206 E1.30957
G1 X1.256 Y-12.573 E1.32594
G1 X1.196 Y-12.714 E1.33049
G1 X0.989 Y-12.699 E1.33664
G1 X0.869 Y-13.041 E1.34741
G1 X0.783 Y-13.129 E1.35105
G1 X0.684 Y-13.435 E1.36061
G1 X0.696 Y-13.808 E1.37170
G1 X0.748 Y-14.102 E1.38057
G1 X0.829 Y-14.304 E1.38701
G1 X0.887 Y-14.544 E1.39433
G1 X0.899 Y-14.692 E1.39875
G1 X0.994 Y-15.039 E1.40945
G1 X1.299 Y-15.338 E1.42210
G1 X1.581 Y-15.534 E1.43232
G1 X2.219 Y-15.543 E1.45125
G1 X2.666 Y-15.361 E1.46558
G1 X2.726 Y-15.545 E1.47133
G1 X2.957 Y-15.741 E1.48035
G1 X3.497 Y-16.064 E1.49901
G1 X3.640 Y-16.128 E1.50366
G1 X4.087 Y-16.446 E1.51997
G1 X4.401 Y-16.713 E1.53220
G1 X4.608 Y-16.777 E1.53864
G1 X4.904 Y-16.816 E1.54751 F900.000
G1 X5.184 Y-16.771 E1.55592
G1 X5.739 Y-16.773 E1.57241
G1 X6.323 Y-16.576 E1.59071
G1 X6.407 Y-16.446 E1.59530
G1 X6.881 Y-16.254 E1.61048
G1 E0.91048 F600.00000
G92 E0
G1 Z0.400 F5400.000
G1 X2.345 Y-11.824 F5400.000
G1 Z0.200 F5400.000
G1 E0.70000 F600.00000
G1 X2.370 Y-11.577 E0.70739 F900.000
G1 X2.250 Y-11.356 E0.71486
G1 X2.137 Y-11.029 E0.72513
G1 X1.966 Y-10.695 E0.73625
G1 X1.536 Y-10.256 E0.75452
G1 X1.371 Y-10.388 E0.76078
G1 X0.895 Y-10.538 E0.77562
G1 X0.854 Y-10.778 E0.78283
G1 X0.817 Y-11.255 E0.79706
G1 X0.956 Y-11.528 E0.80614
G1 X1.144 Y-11.995 E0.82109
G1 X1.365 Y-12.192 E0.82988 F900.000
G1 X1.783 Y-12.070 E0.84280
G1 X2.098 Y-12.017 E0.85229
G1 X2.304 Y-11.857 E0.86003
G1 X2.591 Y-11.786 F5400.000
G1 X2.340 Y-13.141 F5400.000
G1 X2.182 Y-13.145 E0.86472 F900.000
G1 X1.235 Y-13.075 E0.89291
G1 X1.179 Y-13.235 E0.89793
G1 X1.097 Y-13.318 E0.90142
G1 X1.043 Y-13.485 E0.90663
G1 X1.052 Y-13.771 E0.91512
G1 X1.094 Y-14.004 E0.92213
G1 X1.170 Y-14.195 E0.92824
G1 X1.240 Y-14.486 E0.93714
G1 X1.252 Y-14.629 E0.94140
G1 X1.313 Y-14.852 E0.94826
G1 X1.527 Y-15.062 E0.95715
G1 X1.695 Y-15.179 E0.96323
G1 X2.151 Y-15.185 E0.97676
G1 X2.574 Y-15.012 E0.99034
G1 X2.817 Y-14.881 E0.99853
G1 X2.968 Y-15.135 E1.00729
G1 X3.034 Y-15.338 E1.01361
G1 X3.166 Y-15.450 E1.01876
G1 X3.661 Y-15.747 E1.03590
G1 X3.817 Y-15.816 E1.04095
G1 X4.307 Y-16.164 E1.05881
G1 X4.577 Y-16.394 E1.06933
G1 X4.684 Y-16.427 E1.07268
G1 X4.899 Y-16.455 E1.07910 F900.000
G1 X5.157 Y-16.414 E1.08685
G1 X5.681 Y-16.416 E1.10243
G1 X6.091 Y-16.278 E1.11526
G1 X6.168 Y-16.157 E1.11950
G1 X6.462 Y-16.038 E1.12890
G1 X6.292 Y-15.631 E1.14199
G1 X6.012 Y-15.355 E1.15368
G1 X5.642 Y-15.131 E1.16652
G1 X5.216 Y-15.089 E1.17924
G1 X4.806 Y-15.141 E1.19150
G1 X4.496 Y-15.099 E1.20080
G1 X4.347 Y-15.041 E1.20553
G1 X3.944 Y-14.400 E1.22802
G1 X3.394 Y-14.257 E1.24489
G1 X3.668 Y-13.779 E1.26123
G1 X3.720 Y-13.807 E1.26298
G1 X3.800 Y-13.752 E1.26587
G1 X3.978 Y-13.962 E1.27404
G1 X4.129 Y-14.252 E1.28374
G1 X4.520 Y-13.881 E1.29975
G1 X4.736 Y-13.418 E1.31490
G1 X4.432 Y-13.182 E1.32633
G1 X4.069 Y-12.731 E1.34352
G1 X3.882 Y-12.704 E1.34915
G1 X3.321 Y-12.799 E1.36604
G1 X3.230 Y-13.262 E1.38005
G1 X2.784 Y-13.128 E1.39386
G1 X2.392 Y-13.139 E1.40550
G1 X2.257 Y-13.006 F5400.000
G1 E0.70550 F600.00000
G92 E0
G1 Z0.400 F5400.000
G1 X2.876 Y-17.539 F5400.000
G1 Z0.200 F5400.000
G1 E0.70000 F600.00000
G1 X2.368 Y-17.731 E0.71612 F900.000
G1 X2.054 Y-18.151 E0.73170
G1 X2.425 Y-19.401 E0.77039
G1 X3.253 Y-19.604 E0.79570
G1 X4.402 Y-19.762 E0.83012 F900.000
G1 X3.596 Y-18.079 E0.88554
G1 X3.335 Y-17.750 E0.89800
G1 X2.924 Y-17.561 E0.91144
G1 X2.862 Y-17.926 F5400.000
G1 X2.592 Y-18.028 E0.92002 F900.000
G1 X2.448 Y-18.221 E0.92718
G1 X2.710 Y-19.103 E0.95448
G1 X3.321 Y-19.253 E0.97317
G1 X3.794 Y-19.318 E0.98734 F900.000
G1 X3.292 Y-18.269 E1.02186
G1 X3.109 Y-18.039 E1.03059
G1 X2.910 Y-17.948 E1.03708
G1 X2.694 Y-17.691 F5400.000
G1 E0.33708 F600.00000
G92 E0
G1 Z0.400 F5400.000
G1 X4.417 Y-28.633 F5400.000
G1 Z0.200 F5400.000
G1 E0.70000 F600.00000
G1 X3.423 Y-29.572 E0.74061 F900.000
G1 X3.423 Y-29.648 E0.74286
G1 X3.318 Y-29.731 E0.74684
G1 X2.963 Y-30.189 E0.76405
G1 X3.211 Y-30.649 E0.77957
G1 X4.037 Y-31.373 E0.81216 F900.000
G1 X4.681 Y-30.664 E0.84061
G1 X4.986 Y-29.558 E0.87467
G1 X4.445 Y-28.678 E0.90535
G1 X4.343 Y-29.194 F5400.000
G1 X3.780 Y-29.725 E0.92833 F900.000
G1 X3.781 Y-29.819 E0.93111
G1 X3.574 Y-29.984 E0.93895
G1 X3.388 Y-30.224 E0.94799
G1 X3.495 Y-30.423 E0.95470
G1 X4.008 Y-30.873 E0.97496 F900.000
G1 X4.359 Y-30.487 E0.99047
G1 X4.601 Y-29.613 E1.01739
G1 X4.371 Y-29.239 E1.03042
G1 X4.121 Y-28.924 F5400.000
G1 E0.33042 F600.00000
G92 E0
G1 Z0.400 F5400.000
G1 X2.861 Y-33.381 F5400.000
G1 Z0.200 F5400.000
G1 E0.70000 F600.00000
G1 X1.553 Y-33.033 E0.74019 F900.000
G1 X0.988 Y-34.337 E0.78238
G1 X1.803 Y-34.635 E0.80815
G1 X2.161 Y-34.607 E0.81880
G1 X2.314 Y-34.821 E0.82662
G1 X2.577 Y-34.971 E0.83562
G1 X2.870 Y-34.977 E0.84432
G1 X3.383 Y-34.982 E0.85954 F900.000
G1 X3.868 Y-34.050 E0.89075
G1 X3.284 Y-33.776 E0.90990
G1 X3.178 Y-33.634 E0.91515
G1 X2.902 Y-33.414 E0.92563
G1 X2.696 Y-33.707 F5400.000
G1 X1.758 Y-33.457 E0.95446 F900.000
G1 X1.466 Y-34.131 E0.97628
G1 X1.853 Y-34.273 E0.98850
G1 X2.334 Y-34.235 E1.00282
G1 X2.559 Y-34.549 E1.01430
G1 X2.676 Y-34.616 E1.01829
G1 X2.876 Y-34.620 E1.02423
G1 X3.167 Y-34.623 E1.03289 F900.000
G1 X3.379 Y-34.215 E1.04654
G1 X3.052 Y-34.061 E1.05729
G1 X2.919 Y-33.885 E1.06384
G1 X2.737 Y-33.739 E1.07075
G1 X2.653 Y-33.359 F5400.000
G1 X21.509 Y-28.253 F5400.000
G1 X21.826 Y-28.623 E1.08521 F900.000
G1 X22.359 Y-29.244 E1.10952 F900.000
G1 X22.945 Y-28.366 E1.14085
G1 X23.210 Y-28.192 E1.15027
G1 X23.490 Y-27.372 E1.17599
G1 X23.387 Y-27.026 E1.18674
G1 X23.078 Y-26.573 E1.20300
G1 X23.484 Y-26.566 E1.21505
G1 X23.981 Y-26.652 E1.23002
G1 X24.269 Y-26.505 E1.23964
G1 X24.759 Y-26.026 E1.25998
G1 X24.823 Y-25.679 E1.27047
G1 X24.759 Y-25.401 E1.27892
G1 X24.987 Y-25.273 E1.28668
G1 X25.006 Y-24.761 E1.30192
G1 X24.751 Y-24.034 E1.32478
G1 X24.873 Y-23.885 E1.33049
G1 X24.981 Y-23.906 E1.33377
G1 X25.086 Y-23.624 E1.34270
G1 X25.681 Y-22.896 E1.37062
G1 X25.372 Y-22.854 E1.37988
G1 X25.459 Y-22.620 E1.38730
G1 X24.672 Y-22.086 E1.41554
G1 X23.999 Y-22.691 E1.44242
G1 X23.997 Y-22.743 E1.44396
G1 X23.751 Y-22.773 E1.45133
G1 X23.122 Y-22.612 E1.47061
G1 X22.713 Y-23.575 E1.50166
G1 X23.416 Y-24.378 E1.53336
G1 X23.295 Y-24.551 E1.53961
G1 X22.909 Y-24.589 E1.55113
G1 X22.751 Y-25.476 E1.57787
G1 X23.051 Y-26.528 E1.61035
G1 X22.232 Y-26.636 E1.63486
G1 X21.809 Y-27.019 E1.65183
G1 X21.666 Y-27.390 E1.66364
G1 X21.542 Y-27.548 E1.66958
G1 X21.512 Y-28.200 E1.68898
G1 E0.98898 F600.00000
G92 E0
G1 Z0.400 F5400.000
G1 X23.332 Y-26.212 F5400.000
G1 Z0.200 F5400.000
G1 E0.70000 F600.00000
G1 X23.512 Y-26.209 E0.70534 F900.000
G1 X23.925 Y-26.280 E0.71778 F900.000
G1 X24.059 Y-26.212 E0.72225
G1 X24.428 Y-25.850 E0.73760
G1 X24.458 Y-25.687 E0.74254
G1 X24.362 Y-25.267 E0.75534
G1 X24.394 Y-25.197 E0.75761
G1 X24.638 Y-25.060 E0.76592
G1 X24.647 Y-24.815 E0.77320
G1 X24.456 Y-24.272 E0.79030
G1 X24.267 Y-24.148 E0.79701
G1 X24.395 Y-23.972 E0.80347
G1 X24.451 Y-23.838 E0.80779
G1 X24.731 Y-23.494 E0.82097
G1 X24.752 Y-23.498 E0.82160
G1 X24.772 Y-23.444 E0.82329
G1 X25.001 Y-23.165 E0.83402
G1 X24.882 Y-23.149 E0.83758
G1 X25.027 Y-22.758 E0.84994
G1 X24.703 Y-22.538 E0.86157
G1 X24.351 Y-22.854 E0.87560
G1 X24.346 Y-23.060 E0.88171
G1 X23.728 Y-23.135 E0.90019
G1 X23.330 Y-23.034 E0.91237
G1 X23.129 Y-23.508 E0.92767
G1 X23.795 Y-24.262 E0.95752
G1 X23.797 Y-24.669 E0.96962
G1 X23.634 Y-24.689 E0.97448
G1 X23.494 Y-24.890 E0.98176
G1 X23.213 Y-24.918 E0.99014
G1 X23.117 Y-25.458 E1.00642
G1 X23.317 Y-26.161 E1.02815
G1 X23.350 Y-26.390 F5400.000
G1 X22.876 Y-26.911 F5400.000
G1 X22.389 Y-26.975 E1.04273 F900.000
G1 X22.111 Y-27.227 E1.05387
G1 X21.980 Y-27.569 E1.06475
G1 X21.893 Y-27.679 E1.06889
G1 X21.872 Y-28.128 E1.08225
G1 X22.097 Y-28.390 E1.09251
G1 X22.323 Y-28.654 E1.10282 F900.000
G1 X22.688 Y-28.107 E1.12233
G1 X22.912 Y-27.961 E1.13027
G1 X23.115 Y-27.365 E1.14896
G1 X23.060 Y-27.181 E1.15467
G1 X22.906 Y-26.954 E1.16280
G1 X22.777 Y-26.575 F5400.000
G1 X-26.003 Y-25.600 F5400.000
G1 X-26.039 Y-46.442 E1.78164 F900.000
G1 X26.042 Y-46.442 E3.32797
G1 X26.042 Y-18.270 E4.16443
G1 X25.784 Y-18.519 E4.17508 F900.000
G1 X25.346 Y-19.226 E4.19976
G1 X24.690 Y-19.382 E4.21977
G1 X24.451 Y-19.395 E4.22688
G1 X23.866 Y-19.102 E4.24631
G1 X23.602 Y-19.763 E4.26746
G1 X22.770 Y-19.412 E4.29426
G1 X22.614 Y-19.603 E4.30160
G1 X21.883 Y-19.315 E4.32491
G1 X21.799 Y-19.177 E4.32971
G1 X21.668 Y-19.220 E4.33379
G1 X21.172 Y-19.978 E4.36069
G1 X20.173 Y-18.530 E4.41291
G1 X20.791 Y-18.047 E4.43620
G1 X20.988 Y-17.852 E4.44444
G1 X21.264 Y-17.689 E4.45394
G1 X21.651 Y-17.551 E4.46614
G1 X22.618 Y-17.699 E4.49520
G1 X23.195 Y-17.568 E4.51274
G1 X23.549 Y-17.222 E4.52745
G1 X23.666 Y-17.228 E4.53092
G1 X23.748 Y-17.161 E4.53407
G1 X24.007 Y-16.865 E4.54573
G1 X24.276 Y-16.397 E4.56178
G1 X24.391 Y-15.636 E4.58462
G1 X24.601 Y-15.547 E4.59139
G1 X24.877 Y-15.213 E4.60426
G1 X25.050 Y-15.215 E4.60942
G1 X25.140 Y-15.061 E4.61471
G1 X25.183 Y-15.037 E4.61617
G1 X25.176 Y-14.908 E4.62002
G1 X25.033 Y-14.720 E4.62702
G1 X24.836 Y-15.178 E4.64181
G1 X24.022 Y-15.092 E4.66610
G1 X23.890 Y-14.991 E4.67103
G1 X23.506 Y-15.051 E4.68256
G1 X23.107 Y-14.266 E4.70871
G1 X23.556 Y-13.817 E4.72757
G1 X23.865 Y-13.189 E4.74834
G1 X24.900 Y-13.562 E4.78098
G1 X25.000 Y-13.294 E4.78947
G1 X26.042 Y-13.478 E4.82086
G1 X26.042 Y-6.951 E5.01465
G1 X25.283 Y-6.968 E5.03718
G1 X25.257 Y-6.306 E5.05685
G1 X25.170 Y-6.096 E5.06360
